Catalina-light/actions/22/document-page-setup.svg

<svg xmlns="http://www.w3.org/2000/svg" viewBox="0 0 22 22">
  <defs id="defs3051">
    <style type="text/css" id="current-color-scheme">
      .ColorScheme-Text {
        color:#4d4d4d
      }
      </style>
  </defs>
  <g
     id="cog2"
     transform="matrix(0.12785578,0,0,0.12785578,2.9452779,2.9451888)">
    <path
       style="fill:currentColor;fill-opacity:1;stroke:none"
	 class="ColorScheme-Text"
       d="M 9.84375 3 C 9.6423772 3 9.5173352 3.096547 9.46875 3.2910156 C 9.3784838 3.6381441 9.2771223 4.284045 9.1660156 5.2285156 C 8.8395998 5.3328459 8.5243253 5.4653081 8.21875 5.625 L 6.78125 4.5097656 C 6.6909838 4.4403399 6.6000318 4.40625 6.5097656 4.40625 C 6.356978 4.40625 6.0288867 4.6537988 5.5253906 5.1503906 C 5.0218946 5.6469825 4.6806602 6.0215263 4.5 6.2714844 C 4.4374785 6.3617506 4.40625 6.4403399 4.40625 6.5097656 C 4.40625 6.5931276 4.44034 6.6765315 4.5097656 6.7597656 C 4.9750328 7.322331 5.3471694 7.8012963 5.625 8.1972656 C 5.4513719 8.5166494 5.3159204 8.8368663 5.21875 9.15625 L 3.28125 9.4472656 C 3.2049201 9.4612019 3.1396016 9.5075266 3.0839844 9.5839844 C 3.0283671 9.6603143 3 9.7390315 3 9.8222656 L 3 12.134766 C 3 12.225156 3.0283674 12.307982 3.0839844 12.380859 C 3.1396014 12.453869 3.2124682 12.495957 3.3027344 12.509766 L 5.2089844 12.791016 C 5.3061544 13.13124 5.4472012 13.475137 5.6347656 13.822266 C 5.5098505 13.995894 5.3222237 14.240581 5.0722656 14.556641 C 4.8223076 14.8727 4.6450902 15.104117 4.5410156 15.25 C 4.4853986 15.32659 4.4589844 15.406872 4.4589844 15.490234 C 4.4589844 15.580504 4.482664 15.65909 4.53125 15.728516 C 4.8020485 16.103644 5.3749551 16.686961 6.25 17.478516 C 6.326458 17.554976 6.4125952 17.59375 6.5097656 17.59375 C 6.6139681 17.59375 6.7020587 17.56239 6.7714844 17.5 L 8.2402344 16.384766 C 8.525097 16.530649 8.8375102 16.66025 9.1777344 16.771484 L 9.46875 18.6875 C 9.47578 18.77777 9.515013 18.85304 9.5878906 18.912109 C 9.6607684 18.971307 9.7465796 19 9.84375 19 L 12.15625 19 C 12.357879 19 12.482537 18.90345 12.53125 18.708984 C 12.62139 18.361728 12.722878 17.715955 12.833984 16.771484 C 13.1604 16.667282 13.475803 16.534692 13.78125 16.375 L 15.21875 17.5 C 15.31592 17.56239 15.407 17.59375 15.490234 17.59375 C 15.642894 17.59375 15.968834 17.346655 16.46875 16.853516 C 16.968922 16.360504 17.312691 15.985506 17.5 15.728516 C 17.56252 15.659086 17.59375 15.580501 17.59375 15.490234 C 17.59375 15.399964 17.55979 15.311622 17.490234 15.228516 C 16.990318 14.617365 16.618182 14.138272 16.375 13.791016 C 16.513851 13.534026 16.649303 13.218751 16.78125 12.84375 L 18.708984 12.552734 C 18.792214 12.538794 18.860526 12.492474 18.916016 12.416016 C 18.971505 12.339558 19 12.260968 19 12.177734 L 19 9.8652344 C 19.000128 9.7749684 18.971756 9.6921463 18.916016 9.6191406 C 18.860276 9.5461346 18.787532 9.5040428 18.697266 9.4902344 L 16.791016 9.1972656 C 16.686813 8.8639456 16.545767 8.5249907 16.365234 8.1777344 C 16.490149 8.0041062 16.677776 7.7594189 16.927734 7.4433594 C 17.177692 7.1272999 17.354782 6.8958834 17.458984 6.75 C 17.514604 6.673542 17.541016 6.5931276 17.541016 6.5097656 C 17.541016 6.4125956 17.51747 6.3368673 17.46875 6.28125 C 17.218794 5.9269616 16.645885 5.3362255 15.75 4.5097656 C 15.666894 4.4403399 15.580373 4.40625 15.490234 4.40625 C 15.386032 4.40625 15.302756 4.437606 15.240234 4.5 L 13.759766 5.6152344 C 13.474903 5.4693509 13.16249 5.3396223 12.822266 5.2285156 L 12.53125 3.3125 C 12.524346 3.2222338 12.484987 3.14696 12.412109 3.0878906 C 12.339104 3.0288213 12.253676 3 12.15625 3 L 9.84375 3 z M 11 8.3339844 C 11.736194 8.3339844 12.364009 8.5944778 12.884766 9.1152344 C 13.405522 9.6361188 13.666016 10.263806 13.666016 11 C 13.666016 11.736194 13.405522 12.364009 12.884766 12.884766 C 12.364009 13.40565 11.736194 13.666016 11 13.666016 C 10.263806 13.666016 9.6361188 13.40565 9.1152344 12.884766 C 8.5944778 12.364009 8.3339844 11.736194 8.3339844 11 C 8.3339844 10.263806 8.5943499 9.6361188 9.1152344 9.1152344 C 9.6361188 8.5944778 10.263934 8.3339844 11 8.3339844 z "
       transform="matrix(7.8213124,0,0,7.8213124,-23.035939,-23.035242)"
       id="path4463" />
  </g>
</svg>

<svg viewBox="0 0 22 22" xmlns="http://www.w3.org/2000/svg">
<defs>
<style id="current-color-scheme" type="text/css">.ColorScheme-Text {
        color:#363636
      }</style>
</defs>
<g transform="matrix(.12786 0 0 .12786 2.9453 2.9452)">
<path class="ColorScheme-Text" transform="matrix(7.8213 0 0 7.8213 -23.036 -23.035)" d="m9.8438 3c-0.20137 0-0.32641 0.096547-0.375 0.29102-0.090266 0.34713-0.19163 0.99303-0.30273 1.9375-0.32642 0.10433-0.64169 0.23679-0.94727 0.39648l-1.4375-1.1152c-0.090266-0.069426-0.18122-0.10352-0.27148-0.10352-0.15279 0-0.48088 0.24755-0.98438 0.74414-0.5035 0.49659-0.84473 0.87114-1.0254 1.1211-0.062522 0.090266-0.09375 0.16886-0.09375 0.23828 0 0.083362 0.03409 0.16677 0.10352 0.25 0.46527 0.56257 0.8374 1.0415 1.1152 1.4375-0.17363 0.31938-0.30908 0.6396-0.40625 0.95898l-1.9375 0.29102c-0.07633 0.013936-0.14165 0.060261-0.19727 0.13672-0.055617 0.07633-0.083984 0.15505-0.083984 0.23828v2.3125c0 0.09039 0.028367 0.17322 0.083984 0.24609 0.055617 0.07301 0.12848 0.1151 0.21875 0.12891l1.9062 0.28125c0.09717 0.34022 0.23822 0.68412 0.42578 1.0312-0.12492 0.17363-0.31254 0.41832-0.5625 0.73438-0.24996 0.31606-0.42718 0.54748-0.53125 0.69336-0.055617 0.07659-0.082031 0.15687-0.082031 0.24023 0 0.09027 0.02368 0.16886 0.072266 0.23828 0.2708 0.37513 0.84371 0.95844 1.7188 1.75 0.076458 0.07646 0.1626 0.11523 0.25977 0.11523 0.1042 0 0.19229-0.03136 0.26172-0.09375l1.4688-1.1152c0.28486 0.14588 0.59728 0.27548 0.9375 0.38672l0.29102 1.916c0.00703 0.09027 0.046263 0.16554 0.11914 0.22461 0.072878 0.059198 0.15869 0.087891 0.25586 0.087891h2.3125c0.20163 0 0.32629-0.09655 0.375-0.29102 0.09014-0.34726 0.19163-0.99303 0.30273-1.9375 0.32642-0.1042 0.64182-0.23679 0.94727-0.39648l1.4375 1.125c0.09717 0.06239 0.18825 0.09375 0.27148 0.09375 0.15266 0 0.4786-0.2471 0.97852-0.74023 0.50017-0.49301 0.84394-0.86801 1.0312-1.125 0.06252-0.06943 0.09375-0.14802 0.09375-0.23828 0-0.09027-0.03396-0.17861-0.10352-0.26172-0.49992-0.61115-0.87205-1.0902-1.1152-1.4375 0.13885-0.25699 0.2743-0.57226 0.40625-0.94727l1.9277-0.29102c0.08323-0.01394 0.15154-0.06026 0.20703-0.13672 0.055489-0.076458 0.083984-0.15505 0.083984-0.23828v-2.3125c1.28e-4 -0.090266-0.028244-0.17309-0.083984-0.24609-0.05574-0.073006-0.12848-0.1151-0.21875-0.12891l-1.9062-0.29297c-0.1042-0.33332-0.24525-0.67227-0.42578-1.0195 0.12492-0.17363 0.31254-0.41832 0.5625-0.73438s0.42705-0.54748 0.53125-0.69336c0.05562-0.076458 0.082032-0.15687 0.082032-0.24023 0-0.09717-0.023546-0.1729-0.072266-0.22852-0.24996-0.35429-0.82286-0.94502-1.7188-1.7715-0.083106-0.069426-0.16963-0.10352-0.25977-0.10352-0.1042 0-0.18748 0.031356-0.25 0.09375l-1.4805 1.1152c-0.28486-0.14588-0.59728-0.27561-0.9375-0.38672l-0.29102-1.916c-0.006904-0.090266-0.046263-0.16554-0.11914-0.22461-0.073005-0.059069-0.15843-0.087891-0.25586-0.087891h-2.3125zm1.1562 5.334c0.73619 0 1.364 0.26049 1.8848 0.78125 0.52076 0.52088 0.78125 1.1486 0.78125 1.8848s-0.26049 1.364-0.78125 1.8848c-0.52076 0.52088-1.1486 0.78125-1.8848 0.78125s-1.3639-0.26037-1.8848-0.78125c-0.52076-0.52076-0.78125-1.1486-0.78125-1.8848s0.26037-1.3639 0.78125-1.8848c0.52088-0.52076 1.1487-0.78125 1.8848-0.78125z" fill="#363636"/>
</g>
</svg>
